X:1
T: The Braes of Breadalbane
T: First tune
R:Strathspey
Q:128
K:Am
M:4/4
L:1/16
|:E2|EA3 A3B c3B A3c|e4 c2A2 e4 c2A2|EA3 A3B c3B A2c2|c3A B3^G A4 A2E2|
EA3 A3B c3B A3c|e4 c2A2 e4 c2A2|EA3 A3B c3B A2c2|c3A B3^G A4 A2G2|
cc3 c2c2 dd3 d2d2|e3f g3e d3B A2G2|cc3 c2c2 dd3 d2d2|e3d c3d e4e2^G2|
cc3 c2c2 dd3 d2d2|e3f g3e d3B A2G2|cc3 c2c2 dd3 d2d2|e3d c3B A4:|
